icon/fa/location-crosshairs.svg

<svg xmlns="http://www.w3.org/2000/svg" viewBox="0 0 512 512"><!--! Font Awesome Free 6.1.2 by @fontawesome - https://fontawesome.com License - https://fontawesome.com/license/free (Icons: CC BY 4.0, Fonts: SIL OFL 1.1, Code: MIT License) Copyright 2022 Fonticons, Inc.--><path d="M176 256c0-44.2 35.8-80 80-80s80 35.8 80 80-35.8 80-80 80-80-35.8-80-80zM256 0c17.7 0 32 14.33 32 32v34.65C368.4 80.14 431.9 143.6 445.3 224H480c17.7 0 32 14.3 32 32s-14.3 32-32 32h-34.7c-13.4 80.4-76.9 143.9-157.3 157.3V480c0 17.7-14.3 32-32 32s-32-14.3-32-32v-34.7C143.6 431.9 80.14 368.4 66.65 288H32c-17.67 0-32-14.3-32-32s14.33-32 32-32h34.65C80.14 143.6 143.6 80.14 224 66.65V32c0-17.67 14.3-32 32-32zM128 256c0 70.7 57.3 128 128 128s128-57.3 128-128-57.3-128-128-128-128 57.3-128 128z"/></svg>

<svg xmlns="http://www.w3.org/2000/svg" viewBox="0 0 512 512" height="1em" width="1em">
<!--! Font Awesome Free 6.1.2 by @fontawesome - https://fontawesome.com License - https://fontawesome.com/license/free (Icons: CC BY 4.0, Fonts: SIL OFL 1.1, Code: MIT License) Copyright 2022 Fonticons, Inc.-->
  <path d="M176 256C176 211.8 211.8 176 256 176C300.2 176 336 211.8 336 256C336 300.2 300.2 336 256 336C211.8 336 176 300.2 176 256zM256 0C273.7 0 288 14.33 288 32V66.65C368.4 80.14 431.9 143.6 445.3 224H480C497.7 224 512 238.3 512 256C512 273.7 497.7 288 480 288H445.3C431.9 368.4 368.4 431.9 288 445.3V480C288 497.7 273.7 512 256 512C238.3 512 224 497.7 224 480V445.3C143.6 431.9 80.14 368.4 66.65 288H32C14.33 288 0 273.7 0 256C0 238.3 14.33 224 32 224H66.65C80.14 143.6 143.6 80.14 224 66.65V32C224 14.33 238.3 0 256 0zM128 256C128 326.7 185.3 384 256 384C326.7 384 384 326.7 384 256C384 185.3 326.7 128 256 128C185.3 128 128 185.3 128 256z"/>
</svg>
